icons/arrow-small-top-left.svg

<svg xmlns="http://www.w3.org/2000/svg" width="24" height="24" viewBox="0 0 24 24">
  <path d="M15,6 C15.5522847,6 16,6.44771525 16,7 C16,7.51283584 15.6139598,7.93550716 15.1166211,7.99327227 L15,8 L9.415,8 L16.7071068,15.2928932 C17.0976311,15.6834175 17.0976311,16.3165825 16.7071068,16.7071068 C16.3466228,17.0675907 15.7793918,17.0953203 15.3871006,16.7902954 L15.2928932,16.7071068 L8,9.415 L8,15 C8,15.5522847 7.55228475,16 7,16 C6.48716416,16 6.06449284,15.6139598 6.00672773,15.1166211 L6,15 L6,7 L6.00016755,6.98163795 C6.00059932,6.95798023 6.0018656,6.93433491 6.00396641,6.91074993 L6,7 C6,6.94937972 6.00376119,6.89963791 6.01101934,6.85103878 C6.01362808,6.83405099 6.01670217,6.81662474 6.02024007,6.79927424 C6.0246398,6.77725392 6.02983363,6.75556352 6.03572097,6.73416039 C6.04009773,6.71853672 6.04472872,6.70314866 6.04973809,6.68785748 C6.05612249,6.66820232 6.06331574,6.6484208 6.07110396,6.62894148 C6.07819642,6.61120435 6.08567905,6.5939015 6.09367336,6.57677845 C6.10337664,6.5561086 6.11379392,6.53570605 6.12487577,6.51572305 C6.13149883,6.50360556 6.13860692,6.49138689 6.14599545,6.47929125 C6.1617187,6.45372505 6.17849009,6.42886931 6.19631351,6.4048407 C6.20175344,6.39739696 6.20728448,6.39015759 6.21292769,6.38297765 C6.26026655,6.32273092 6.31457489,6.26782388 6.37455101,6.21968877 L6.38519363,6.21126487 L6.38519363,6.21126487 L6.29289322,6.29289322 C6.32828727,6.25749917 6.36567442,6.22531295 6.40469339,6.19633458 C6.42886931,6.17849009 6.45372505,6.1617187 6.47933981,6.14606743 C6.49138689,6.13860692 6.50360556,6.13149883 6.5159379,6.12467117 C6.53570605,6.11379392 6.5561086,6.10337664 6.57690085,6.09365378 C6.5939015,6.08567905 6.61120435,6.07819642 6.62866398,6.07122549 C6.6484208,6.06331574 6.66820232,6.05612249 6.68826359,6.04954668 C6.69460531,6.0475275 6.70137201,6.04539061 6.70815633,6.0433274 L6.72912705,6.03711974 C6.75280168,6.03047332 6.77683175,6.02467654 6.80118228,6.01976438 C6.80870645,6.01833482 6.81613141,6.01692406 6.82356849,6.01559786 L6.84601538,6.01178265 C6.85839634,6.00986911 6.8708523,6.00818267 6.88337887,6.00672773 L6.91578241,6.00353089 C6.93769794,6.00168973 6.95966259,6.00056861 6.98163795,6.00016755 C6.9872016,6.00006024 6.99359377,6 7,6 L15,6 Z"/>
</svg>

<svg xmlns="http://www.w3.org/2000/svg" viewBox="0 0 24 24">
  <path d="M15 6a1 1 0 0 1 .12 2H9.4l7.3 7.3a1 1 0 0 1-1.32 1.49l-.1-.08L8 9.4V15a1 1 0 0 1-2 .12V6.98a1 1 0 0 1 0-.07V7a1 1 0 0 1 .37-.78h.02l-.1.07a1 1 0 0 1 .42-.25h.02a1 1 0 0 1 .07-.02h.05A1 1 0 0 1 6.88 6h.04A1 1 0 0 1 7 6h8z"/>
</svg>
